svg/fluentui-system-icons/ic_fluent_time_and_weather_24_filled.svg

<svg width="24" height="24" viewBox="0 0 24 24" fill="none" xmlns="http://www.w3.org/2000/svg">
<path d="M11.9967 18.5318C12.5096 18.5318 12.9323 18.9179 12.99 19.4152L12.9967 19.5318V20.9876C12.9967 21.5399 12.549 21.9876 11.9967 21.9876C11.4839 21.9876 11.0612 21.6015 11.0035 21.1042L10.9967 20.9876V19.5318C10.9967 18.9795 11.4445 18.5318 11.9967 18.5318ZM18.0333 16.5998L19.0627 17.6292C19.4532 18.0197 19.4532 18.6529 19.0627 19.0434C18.6722 19.4339 18.039 19.4339 17.6485 19.0434L16.6191 18.014C16.2286 17.6235 16.2286 16.9903 16.6191 16.5998C17.0096 16.2093 17.6428 16.2093 18.0333 16.5998ZM7.37393 16.5998C7.76445 16.9903 7.76445 17.6235 7.37393 18.014L6.34454 19.0434C5.95402 19.4339 5.32085 19.4339 4.93033 19.0434C4.53981 18.6529 4.53981 18.0197 4.93033 17.6292L5.95971 16.5998C6.35024 16.2093 6.9834 16.2093 7.37393 16.5998ZM12.0091 6.4719C15.0605 6.4719 17.5341 8.94552 17.5341 11.9969C17.5341 15.0483 15.0605 17.5219 12.0091 17.5219C8.95776 17.5219 6.48413 15.0483 6.48413 11.9969C6.48413 8.94552 8.95776 6.4719 12.0091 6.4719ZM11.2504 9.00014C10.8707 9.00014 10.557 9.2823 10.5073 9.64837L10.5004 9.75014V12.7539L10.5073 12.8556C10.5524 13.1884 10.8159 13.4519 11.1487 13.497L11.2504 13.5039H13.2501L13.3519 13.497C13.6847 13.4519 13.9481 13.1884 13.9933 12.8556L14.0001 12.7539L13.9933 12.6521C13.9481 12.3193 13.6847 12.0559 13.3519 12.0107L13.2501 12.0039L12.0004 12.0031V9.75014L11.9936 9.64837C11.9439 9.2823 11.6301 9.00014 11.2504 9.00014ZM20.9775 11.0179C21.5297 11.0179 21.9775 11.4656 21.9775 12.0179C21.9775 12.5307 21.5914 12.9534 21.0941 13.0112L20.9775 13.0179H19.5217C18.9694 13.0179 18.5217 12.5702 18.5217 12.0179C18.5217 11.5051 18.9077 11.0824 19.4051 11.0246L19.5217 11.0179H20.9775ZM4.47921 10.9899C5.03149 10.9899 5.47921 11.4377 5.47921 11.9899C5.47921 12.5028 5.09317 12.9254 4.59583 12.9832L4.47921 12.9899H3.02344C2.47115 12.9899 2.02344 12.5422 2.02344 11.9899C2.02344 11.4771 2.40948 11.0544 2.90682 10.9967L3.02344 10.9899H4.47921ZM6.25034 4.87367L6.34454 4.95686L7.37393 5.98625C7.76445 6.37677 7.76445 7.00994 7.37393 7.40046C7.01344 7.76094 6.44621 7.78867 6.05392 7.48365L5.95971 7.40046L4.93033 6.37108C4.53981 5.98055 4.53981 5.34739 4.93033 4.95686C5.29081 4.59638 5.85804 4.56865 6.25034 4.87367ZM19.0627 4.95686C19.4232 5.31735 19.4509 5.88458 19.1459 6.27687L19.0627 6.37108L18.0333 7.40046C17.6428 7.79098 17.0096 7.79098 16.6191 7.40046C16.2586 7.03998 16.2309 6.47274 16.5359 6.08045L16.6191 5.98625L17.6485 4.95686C18.039 4.56634 18.6722 4.56634 19.0627 4.95686ZM12.0007 2.0127C12.5135 2.0127 12.9362 2.39874 12.994 2.89607L13.0007 3.0127V4.46846C13.0007 5.02075 12.553 5.46846 12.0007 5.46846C11.4878 5.46846 11.0652 5.08242 11.0074 4.58509L11.0007 4.46846V3.0127C11.0007 2.46041 11.4484 2.0127 12.0007 2.0127Z" fill="#212121"/>
</svg>

<svg xmlns="http://www.w3.org/2000/svg" width="24" height="24"><path d="M11.997 18.532a1 1 0 0 1 .993.883l.007.117v1.456a1 1 0 0 1-1.993.116l-.007-.116v-1.456a1 1 0 0 1 1-1Zm6.036-1.932 1.03 1.03a1 1 0 0 1-1.415 1.413l-1.029-1.029a1 1 0 0 1 1.414-1.414Zm-10.66 0a1 1 0 0 1 0 1.414l-1.028 1.03a1 1 0 0 1-1.415-1.415l1.03-1.03a1 1 0 0 1 1.414 0ZM12.01 6.472a5.525 5.525 0 1 1 0 11.05 5.525 5.525 0 0 1 0-11.05ZM11.25 9a.75.75 0 0 0-.743.648l-.007.102v3.004l.007.102a.75.75 0 0 0 .642.641l.101.007h2l.102-.007a.75.75 0 0 0 .641-.641l.007-.102-.007-.102a.75.75 0 0 0-.641-.641l-.102-.007H12V9.75l-.006-.102A.75.75 0 0 0 11.25 9Zm9.727 2.018a1 1 0 0 1 .117 1.993l-.117.007h-1.455a1 1 0 0 1-.117-1.993l.117-.007h1.456ZM4.48 10.99a1 1 0 0 1 .117 1.993l-.117.007H3.023a1 1 0 0 1-.116-1.993l.116-.007H4.48Zm1.77-6.116.095.083 1.029 1.03a1 1 0 0 1-1.32 1.497L5.96 7.4 4.93 6.371a1 1 0 0 1 1.32-1.497Zm12.813.083a1 1 0 0 1 .083 1.32l-.083.094-1.03 1.03a1 1 0 0 1-1.497-1.32l.083-.095 1.03-1.03a1 1 0 0 1 1.414 0ZM12 2.013a1 1 0 0 1 .993.883l.007.117v1.455a1 1 0 0 1-1.994.117L11 4.468V3.013a1 1 0 0 1 1-1Z"/></svg>
